assets/lut.cube
# Created by: Liit
LUT_3D_SIZE 4
0.0000000000 0.0000000000 0.0000000000
0.3098039216 0.0000000000 0.0000000000
0.6862745098 0.0000000000 0.0000000000
1.0000000000 0.0000000000 0.0000000000
0.0235294118 0.2274509804 0.0196078431
0.2823529412 0.2666666667 0.0000000000
0.6666666667 0.2470588235 0.0000000000
1.0000000000 0.2274509804 0.0000000000
0.0509803922 0.5647058824 0.0392156863
0.1803921569 0.5372549020 0.0196078431
0.6666666667 0.6352941176 0.0000000000
1.0000000000 0.6117647059 0.0000000000
0.0862745098 0.9647058824 0.0666666667
0.1921568627 0.9568627451 0.0352941176
0.4980392157 0.9843137255 0.0117647059
1.0000000000 1.0000000000 0.0000000000
0.0078431373 0.0039215686 0.2117647059
0.3254901961 0.0000000000 0.2745098039
0.6980392157 0.0000000000 0.2392156863
1.0000000000 0.0000000000 0.2117647059
0.0235294118 0.2941176471 0.2549019608
0.3372549020 0.3058823529 0.2705882353
0.7215686275 0.2588235294 0.2274509804
1.0000000000 0.2352941176 0.2039215686
0.0509803922 0.6392156863 0.2274509804
0.2980392157 0.6313725490 0.2509803922
0.7098039216 0.6666666667 0.1803921569
1.0000000000 0.6196078431 0.1882352941
0.0784313725 0.9803921569 0.2431372549
0.2862745098 0.9725490196 0.2431372549
0.5254901961 0.9686274510 0.1960784314
1.0000000000 1.0000000000 0.1803921569
0.0156862745 0.0117647059 0.5607843137
0.2588235294 0.0000000000 0.6274509804
0.7098039216 0.0000000000 0.6549019608
1.0000000000 0.0000000000 0.6078431373
0.0274509804 0.2117647059 0.5215686275
0.2745098039 0.2470588235 0.6705882353
0.7254901961 0.2666666667 0.6549019608
1.0000000000 0.2392156863 0.6196078431
0.0588235294 0.6627450980 0.6274509804
0.3058823529 0.6745098039 0.6431372549
0.7450980392 0.6784313725 0.6470588235
1.0000000000 0.6392156863 0.6039215686
0.0784313725 0.9921568627 0.6078431373
0.3058823529 0.9921568627 0.6078431373
0.6549019608 0.9843137255 0.5725490196
1.0000000000 1.0000000000 0.5490196078
0.0313725490 0.0156862745 1.0000000000
0.2274509804 0.0000000000 1.0000000000
0.6666666667 0.0000000000 1.0000000000
1.0000000000 0.0000000000 1.0000000000
0.0431372549 0.2117647059 1.0000000000
0.2352941176 0.2078431373 1.0000000000
0.6705882353 0.2235294118 1.0000000000
1.0000000000 0.2392156863 1.0000000000
0.0666666667 0.5843137255 1.0000000000
0.2431372549 0.5647058824 1.0000000000
0.6313725490 0.5725490196 1.0000000000
1.0000000000 0.6431372549 1.0000000000
0.0901960784 1.0000000000 0.9882352941
0.3137254902 1.0000000000 0.9882352941
0.7176470588 1.0000000000 1.0000000000
1.0000000000 1.0000000000 1.0000000000
